X:294
T:Pinch of Snuff
Z: id:dc-reel-112
M:C
L:1/8
K:D Major
E|DFAF BFAF|DFAF EFFE|DFAF BFAF|G2BG EFF:|!
K:G Major
A|dBGB ABGB|dBGB ABBA|dBGB ABGB|c2ec ABB:|!
A|GBdB eBdB|GBdB ABBA|GBdB eBdB|c2ec ABB:|!
K:D Major
e|afdf efdf|afdf effe|afdf efdf|g2bg eff:|!
e|dfaf bfaf|dfaf effe|dfaf bfaf|g2bg eff:|!
e|f2fe dcdB|ABAF DFAF|DFAF BFAF|G2BG EFF:|!

